storage/app/icons/phosphoricons/bold/lock-open-bold.svg

<svg xmlns="http://www.w3.org/2000/svg" fill="currentColor" viewBox="0 0 256 256"><path d="M208 76H100V56a28 28 0 0 1 28-28c13.51 0 25.65 9.62 28.24 22.39a12 12 0 1 0 23.52-4.78C174.87 21.5 153.1 4 128 4a52.06 52.06 0 0 0-52 52v20H48a20 20 0 0 0-20 20v112a20 20 0 0 0 20 20h160a20 20 0 0 0 20-20V96a20 20 0 0 0-20-20m-4 128H52V100h152Zm-92-52a16 16 0 1 1 16 16 16 16 0 0 1-16-16"/></svg>

<svg xmlns="http://www.w3.org/2000/svg" viewBox="0 0 256 256" fill="currentColor"><path d="M208,76H100V56a28,28,0,0,1,28-28c13.51,0,25.65,9.62,28.24,22.39a12,12,0,1,0,23.52-4.78C174.87,21.5,153.1,4,128,4A52.06,52.06,0,0,0,76,56V76H48A20,20,0,0,0,28,96V208a20,20,0,0,0,20,20H208a20,20,0,0,0,20-20V96A20,20,0,0,0,208,76Zm-4,128H52V100H204Zm-92-52a16,16,0,1,1,16,16A16,16,0,0,1,112,152Z"/></svg>
